X: 35232
T: Rosbif
R: waltz
M: 3/4
K: Aminor
|:c2 AB cA|c3 A/B/ cA|B2 GA BG|A2 A2 A2|
c2 AB cA|c3 A/B/ cA|B2 GA BG|e2 e2 e2|
e2 cd ec|d2 d2 d2|c2 AB cA|B2 B2 B2|
c2 AB cA|c3 A/B/ cA|B2 GA BG|1 A2 A2 A2:|2 A2 AB cd||
e2 f2 e2|c2 c3d|e2 f2 e2|d2 d2 dd/c/|
B2 B3B|B2 B2 BA/B/|B2 d2 dc|A2 AB cd|
e2 f2 e2|c2 c3d|e2 f2 e2|d2 d2 dd/c/|
B2 B3B|B2 B2 z2|B2 d2 dc|A2 A2 B2|
c2 B2 c2|d2 c2 d2|e2 g2 f2|e3d c2|
a2 ag f2|g2 gf e2|d2 c2 d2|e2 e2 c2|
c2 B2 c2|d2 c2 d2|e2 g2 gf|e2 ed c2
a2 ag f2|g2 gf e2|d2 d2 c2|A2 A2 A2||

